X:175
T:Waltz. Le4.175
Q:3/8=50
L:1/8
B:L.Leadley MS#4 c1850
Z:vmp.Mike Hicken 2016 www.village-music-project.org.uk
M:3/8
K:D
A|dd f/a/|dd f/a/|a/g/f/g/ e|g/f/e/f/ d|dd f/a/|dd f/a/|a/g/f/g/ e|d2 :|
|:f/g/|aaf|d'2b|aff|gee|aaf|d'2b|aff|e2A|
dd f/a/|dd f/a/|a/g/f/g/ e|g/f/e/f/ d|dd f/a/|dd f/a/|a/g/f/g/ e|d2 :|

